svgs/thin/user-robot.svg

<svg xmlns="http://www.w3.org/2000/svg" viewBox="0 0 448 512"><!--! Font Awesome Pro 6.6.0 by @fontawesome - https://fontawesome.com License - https://fontawesome.com/license (Commercial License) Copyright 2024 Fonticons, Inc. --><path d="M232 8c0-4.4-3.6-8-8-8s-8 3.6-8 8l0 56-72 0c-44.2 0-80 35.8-80 80l0 96c0 44.2 35.8 80 80 80l160 0c44.2 0 80-35.8 80-80l0-96c0-44.2-35.8-80-80-80l-72 0 0-56zM80 144c0-35.3 28.7-64 64-64l160 0c35.3 0 64 28.7 64 64l0 96c0 35.3-28.7 64-64 64l-160 0c-35.3 0-64-28.7-64-64l0-96zM24 128c-4.4 0-8 3.6-8 8l0 112c0 4.4 3.6 8 8 8s8-3.6 8-8l0-112c0-4.4-3.6-8-8-8zm408 8c0-4.4-3.6-8-8-8s-8 3.6-8 8l0 112c0 4.4 3.6 8 8 8s8-3.6 8-8l0-112zM160 184a24 24 0 1 1 0-48 24 24 0 1 1 0 48zm-40-24a40 40 0 1 0 80 0 40 40 0 1 0 -80 0zm192 0a24 24 0 1 1 -48 0 24 24 0 1 1 48 0zm-24-40a40 40 0 1 0 0 80 40 40 0 1 0 0-80zM96 368l256 0c44.2 0 80 35.8 80 80l0 16c0 17.7-14.3 32-32 32l-32 0 0-48c0-17.7-14.3-32-32-32l-224 0c-17.7 0-32 14.3-32 32l0 48-32 0c-17.7 0-32-14.3-32-32l0-16c0-44.2 35.8-80 80-80zM368 512l32 0c26.5 0 48-21.5 48-48l0-16c0-53-43-96-96-96L96 352c-53 0-96 43-96 96l0 16c0 26.5 21.5 48 48 48l32 0 16 0 256 0 16 0zm-16-16l-56 0 0-64 40 0c8.8 0 16 7.2 16 16l0 48zm-72 0l-48 0 0-64 48 0 0 64zm-64 0l-48 0 0-64 48 0 0 64zm-64 0l-56 0 0-48c0-8.8 7.2-16 16-16l40 0 0 64zm8-264c-4.4 0-8 3.6-8 8l0 32c0 4.4 3.6 8 8 8s8-3.6 8-8l0-32c0-4.4-3.6-8-8-8zm56 8l0 32c0 4.4 3.6 8 8 8s8-3.6 8-8l0-32c0-4.4-3.6-8-8-8s-8 3.6-8 8zm72-8c-4.4 0-8 3.6-8 8l0 32c0 4.4 3.6 8 8 8s8-3.6 8-8l0-32c0-4.4-3.6-8-8-8z"/></svg>

<svg xmlns="http://www.w3.org/2000/svg" viewBox="0 0 448 512"><!--! Font Awesome Pro 6.5.2 by @fontawesome - https://fontawesome.com License - https://fontawesome.com/license (Commercial License) Copyright 2024 Fonticons, Inc. --><path d="M232 8c0-4.4-3.6-8-8-8s-8 3.6-8 8V64H144c-44.2 0-80 35.8-80 80v96c0 44.2 35.8 80 80 80H304c44.2 0 80-35.8 80-80V144c0-44.2-35.8-80-80-80H232V8zM80 144c0-35.3 28.7-64 64-64H304c35.3 0 64 28.7 64 64v96c0 35.3-28.7 64-64 64H144c-35.3 0-64-28.7-64-64V144zM24 128c-4.4 0-8 3.6-8 8V248c0 4.4 3.6 8 8 8s8-3.6 8-8V136c0-4.4-3.6-8-8-8zm408 8c0-4.4-3.6-8-8-8s-8 3.6-8 8V248c0 4.4 3.6 8 8 8s8-3.6 8-8V136zM160 184a24 24 0 1 1 0-48 24 24 0 1 1 0 48zm-40-24a40 40 0 1 0 80 0 40 40 0 1 0 -80 0zm192 0a24 24 0 1 1 -48 0 24 24 0 1 1 48 0zm-24-40a40 40 0 1 0 0 80 40 40 0 1 0 0-80zM96 368H352c44.2 0 80 35.8 80 80v16c0 17.7-14.3 32-32 32H368V448c0-17.7-14.3-32-32-32H112c-17.7 0-32 14.3-32 32v48H48c-17.7 0-32-14.3-32-32V448c0-44.2 35.8-80 80-80zM368 512h32c26.5 0 48-21.5 48-48V448c0-53-43-96-96-96H96c-53 0-96 43-96 96v16c0 26.5 21.5 48 48 48H80 96 352h16zm-16-16H296V432h40c8.8 0 16 7.2 16 16v48zm-72 0H232V432h48v64zm-64 0H168V432h48v64zm-64 0H96V448c0-8.8 7.2-16 16-16h40v64zm8-264c-4.4 0-8 3.6-8 8v32c0 4.4 3.6 8 8 8s8-3.6 8-8V240c0-4.4-3.6-8-8-8zm56 8v32c0 4.4 3.6 8 8 8s8-3.6 8-8V240c0-4.4-3.6-8-8-8s-8 3.6-8 8zm72-8c-4.4 0-8 3.6-8 8v32c0 4.4 3.6 8 8 8s8-3.6 8-8V240c0-4.4-3.6-8-8-8z"/></svg>
